X:1
T:The Peveril Lasses
M:4/4
L:1/8
C:Jean Duval
R:reel
K:Bm
F2fe dcBA|G2BG dGBG|F2fe dcBA|cAeA fAeA|F2fe dcBA|
G3B DGEG|F2fe dcBA|AcBd cecA :: d2 dc defd|e2 ed egfe|
dAFA d2dA|BAGF EFGE|d2 dc defd|e2 ed efge|bfdefdGB|1
decA BABc :|2decA B3A |: FBdB FBdB|GBdB GBdB|FBdB FBdB|
AcBd cecA|FdBF dFBd|GdBG dGBd|bfde fdGB|decAB4:|
